coreui/free/cil-line-style.svg

<svg xmlns="http://www.w3.org/2000/svg" viewBox="0 0 512 512">
  <path fill="var(--ci-primary-color, currentColor)" d="M16,120H496V16H16ZM48,48H464V88H48Z" class="ci-primary"/>
  <path fill="var(--ci-primary-color, currentColor)" d="M240,144H16v96H240Zm-32,64H48V176H208Z" class="ci-primary"/>
  <path fill="var(--ci-primary-color, currentColor)" d="M272,240H496V144H272Zm32-64H464v32H304Z" class="ci-primary"/>
  <path fill="var(--ci-primary-color, currentColor)" d="M152,272H16v88H152Zm-32,56H48V304h72Z" class="ci-primary"/>
  <path fill="var(--ci-primary-color, currentColor)" d="M192,360H320V272H192Zm32-56h64v24H224Z" class="ci-primary"/>
  <path fill="var(--ci-primary-color, currentColor)" d="M360,360H496V272H360Zm32-56h72v24H392Z" class="ci-primary"/>
  <path fill="var(--ci-primary-color, currentColor)" d="M121.442,443.278A52.721,52.721,0,1,0,68.722,496,52.78,52.78,0,0,0,121.442,443.278Zm-73.442,0A20.721,20.721,0,1,1,68.722,464,20.745,20.745,0,0,1,48,443.278Z" class="ci-primary"/>
  <path fill="var(--ci-primary-color, currentColor)" d="M140.853,443.278a52.721,52.721,0,1,0,52.721-52.72A52.78,52.78,0,0,0,140.853,443.278Zm73.442,0a20.721,20.721,0,1,1-20.721-20.72A20.745,20.745,0,0,1,214.3,443.278Z" class="ci-primary"/>
  <path fill="var(--ci-primary-color, currentColor)" d="M265.705,443.278a52.721,52.721,0,1,0,52.721-52.72A52.78,52.78,0,0,0,265.705,443.278Zm73.442,0a20.721,20.721,0,1,1-20.721-20.72A20.745,20.745,0,0,1,339.147,443.278Z" class="ci-primary"/>
  <path fill="var(--ci-primary-color, currentColor)" d="M443.278,390.558A52.721,52.721,0,1,0,496,443.278,52.78,52.78,0,0,0,443.278,390.558Zm0,73.442A20.721,20.721,0,1,1,464,443.278,20.745,20.745,0,0,1,443.278,464Z" class="ci-primary"/>
</svg>

<svg viewBox="0 0 512 512" xmlns="http://www.w3.org/2000/svg"><g><path d="M16 120h480V16H16Zm32-72h416v40H48Z"/><path d="M240 144H16v96h224Zm-32 64H48v-32h160Z"/><path d="M272 240h224v-96H272Zm32-64h160v32H304Z"/><path d="M152 272H16v88h136Zm-32 56H48v-24h72Z"/><path d="M192 360h128v-88H192Zm32-56h64v24h-64Z"/><path d="M360 360h136v-88H360Zm32-56h72v24h-72Z"/><path d="M121.44 443.27v-.001c-.01-29.12-23.61-52.73-52.73-52.72 -29.12 0-52.73 23.6-52.72 52.72 0 29.11 23.6 52.72 52.72 52.72v0c29.1-.04 52.68-23.62 52.72-52.73Zm-73.45 0v0c0-11.45 9.27-20.73 20.72-20.72 11.44 0 20.72 9.27 20.72 20.72 -.01 11.44-9.28 20.71-20.72 20.72h0c-11.44-.02-20.71-9.29-20.73-20.73Z"/><path d="M140.853 443.27v0c-.01 29.11 23.6 52.72 52.72 52.72 29.11 0 52.72-23.61 52.72-52.72 0-29.12-23.61-52.73-52.72-52.73 -.01-.01-.01-.01-.01-.01v0c-29.11.03-52.69 23.61-52.73 52.72Zm73.44 0v0c0 11.44-9.28 20.72-20.72 20.72 -11.45 0-20.73-9.28-20.73-20.72 -.01-11.45 9.27-20.73 20.72-20.73 0-.01 0-.01 0-.01v0c11.43.01 20.71 9.28 20.726 20.72Z"/><path d="M265.705 443.27v0c-.01 29.11 23.6 52.72 52.72 52.72 29.11 0 52.72-23.61 52.72-52.72 0-29.12-23.61-52.73-52.72-52.73 -.01-.01-.01-.01-.01-.01v0c-29.11.03-52.69 23.61-52.73 52.72Zm73.44 0v0c0 11.44-9.28 20.72-20.72 20.72 -11.45 0-20.73-9.28-20.73-20.72 -.01-11.45 9.27-20.73 20.72-20.73 0-.01 0-.01 0-.01v0c11.43.01 20.7 9.28 20.72 20.72Z"/><path d="M443.27 390.558h-.001c-29.12 0-52.73 23.6-52.72 52.72 0 29.11 23.6 52.72 52.72 52.72 29.11-.01 52.72-23.61 52.72-52.73v0c-.04-29.11-23.62-52.69-52.73-52.72Zm0 73.44h0c-11.45-.01-20.73-9.28-20.72-20.73 0-11.45 9.27-20.73 20.72-20.72 11.44 0 20.71 9.27 20.72 20.72v0c-.02 11.43-9.29 20.7-20.73 20.72Z"/></g></svg>
